X:1
T:Title
%%score { 1 | 2 }
L:1/8
M:3/4
K:Bb
V:1 treble nm="Grand Piano"
V:2 bass 
V:1
 z2 z[Q:1/4=100] [DF] [DF][DF] | [DF]3 [DF] [EG][DF] | [DB]3 [DB] [DB][DB] | [DB]3 [FB] cB | %4
[M:3/8] d3 | ddd |[M:3/4] d3 [DB] [Ec][DB] | G3 G GG | FB B2 A2 |[M:3/8] [DB]3 | ccc | %11
[M:3/4] c3 [FA] [FB]c | d3 B BB | B3 G [^FA]B |[M:3/8] c3 | ddd |[M:3/4] d3 B cd | [Ge]3 G GG | %18
 FB B2 A2 |[M:3/8] [DB]3 |] %20
V:2
 z2 z [B,,B,] [B,,B,][B,,B,] | [B,,B,]3 [B,,B,] [B,,B,][B,,B,] | [B,,F,]3 [B,,F,] [B,,F,][B,,F,] | %3
 [B,,F,]3 [D,B,] [F,A,E][F,B,D] |[M:3/8][K:treble] [B,F]3 | [B,F][B,F][B,F] | %6
[M:3/4] [B,F]3[K:bass] [B,,B,] [B,,F,][B,,B,] | [E,B,E]3 [E,B,E] [E,B,E][E,B,E] | %8
 [F,B,D][F,B,D] [F,DF]2 [F,CE]2 |[M:3/8] [B,,B,]3 | [F,A,E][F,A,E][F,A,E] | %11
[M:3/4] [F,A,E]3 [E,C] [D,B,][K:treble][F,A,F] | [B,F]3 [G,DG] [G,DG][G,DG] | %13
 [G,DG]3[K:bass] [G,B,] [D,C][K:treble][G,B,G] |[M:3/8] [F,A,F]3 | [B,F][B,F][B,F] | %16
[M:3/4] [B,F]3[K:bass] [_A,B,D] [G,B,E][F,B,F] | [E,B,]3 [E,B,E] [E,B,E][E,B,E] | %18
 [F,B,D][F,B,D] [F,DF]2 [F,CE]2 |[M:3/8] [B,,B,]3 |] %20

